X: 1
T: Los Molinos
C:\251 George Meikle
B: George Meikle "Originally Mine" p.8
R: reel
Z: 2010 John Chambers <jc:trillian.mit.edu>
M: 4/4
L: 1/8
K: G
d \
|:"G"g2gd "B/G7"edBd | "C"E2Gc "Am"EGc2 | "G"D2GB "Em"DGB2 | "Am"cBAG "D7"Adef |
  "G"g2gd "B/G7"edBd | "C"E2Gc "Eb/Cm"_EGc2 | "G"D2GB DGB2 |1 "Am"cA"D7"FA "G"G3"D7"d :|2 "Am"cA"D7"FA "G7"G3F ||
|:"C"E2Gc "E/C"EGcG | "G"D2GB "B/G"DGBG | "A/D7"C2FA "F#/D7"CFAF | "G"GFGA "B/G7"BAGF |
  "C"E2Gc "E/C"EGcG | "G"D2GB "B/G"DGBG | "A/D7"C2FA "F#/D7"CFAF |1 "G"GB"D7"AF "G7"G3F :| "G"GB"D7"AF "G"G2G2 |]
%%begintext align
Composed as the original tune for the dance of the same name devised by John Drewry in 2002, first published
in 'Thirty Years On' which was a suite of 5 dances to celebrate 30 years of overseas winter holidays organised
by Mary Prentice and the JAG Dancers.
%%endtext

%%sep 1 1 500
%%sep 1 1 500

